X:1
T:Title
%%score { ( 1 3 ) | ( 2 4 ) }
L:1/8
M:6/8
K:Ab
V:1 treble nm="Grand Piano"
V:3 treble 
V:2 bass 
V:4 bass 
V:1
 z3 z2[Q:1/4=100] [CE] | [Ec]2 [Ec] cB[EA] | [FA]2 [FA] BAF | [CE]2 [DF] [CE]2 [A,C] | %4
 [CE]3- [CE]2 [CE] | [CE]2 [DF] [EA]2 B | c2 c c2 [CA] | [=DF]2 [DA] [Dc]2 [DB] | B3- B2 E | %9
 [Ec]2 [Ec] cB[EA] | [FA]2 [FA] BAF | [CE]2 [DF] [CE]2 [A,C] | [CE]3- [CE]2 [CE] | %13
 [CE]2 [DF] [EA]2 B | c2 e e2 e/e/ | ecA [Ac]2 [GB] |[M:5/8] A-A- A3 |[M:1/8] c |[M:3/4] e2 ee cA | %19
 c2 cB AF | [FA]2 [FA]B AF | [CE]4- [CE][CE] | [CE]2 [DF] [EA]2 B |[M:15/16] c->ce e3 e3/2 | %24
[M:3/4] ec A [EAc]2 [DGB] |[M:5/8] [CA]-[CA]- [CA]3 |] %26
V:2
 z3 z2 [A,,A,] | [A,,A,]2 [A,,A,] [A,,A,][B,,G,][C,A,] | [D,A,]2 [D,D] [D,D]2 [D,A,D] | %3
 [A,,A,]2 [A,,A,] [A,,A,]2 [A,,E,] | [A,,A,]3- [A,,A,]2 [A,,A,] | [A,,A,]2 [D,A,] [C,A,]2 [E,G,E] | %6
 [A,E]2 [A,E] [A,E]2 [A,,A,] | [B,,A,]2 [B,,F,] [B,,A,]2 [B,,F,] | [E,G,E]3- [E,G,E]2 [E,G,] | %9
 [A,,A,]2 [A,,A,] [A,,A,][B,,G,][C,A,] | [D,A,]2 [D,D] [D,D]2 [D,A,D] | %11
 [A,,A,]2 [A,,A,] [A,,A,]2 [A,,E,] | [A,,A,]3- [A,,A,]2 [A,,A,] | [A,,A,]2 [D,G,] [C,A,]2 [E,G,E] | %14
 [A,E]2 [A,CA] [A,CA]2 [A,CA]/[A,CA]/ | [A,CA][K:bass][A,E][F,CF] [E,E]2 [E,D] | %16
[M:5/8] [E,C]-[E,C]- [E,C]3 |[M:1/8][K:treble] [A,E] | %18
[M:3/4] [A,CA]2 [A,CA][A,A]- [A,EA][K:bass][A,CE] | [F,A,F]2 [F,A,F] [F,A,F]2 [F,A,C] | %20
 [D,A,]2 [D,A,] [D,A,]2 [D,A,D] | [A,,A,]4- [A,,A,][A,,A,] | [A,,A,]2 [D,A,] [C,A,]2 [E,G,E] | %23
[M:15/16][K:treble] [A,E]->[A,E][A,CA] [A,CA]3 [A,CA]3/2 | %24
[M:3/4] [A,CA][K:bass][A,E] [F,CF] E,2 E, |[M:5/8] A,,-A,,- A,,3 |] %26
V:3
 x6 | z3 .E3 | z3 .F3 | x6 | x6 | x6 | x6 | x6 | x6 | z3 .E3 | z3 .F3 | x6 | x6 | x6 | x6 | x6 | %16
[M:5/8] x5 |[M:1/8] x |[M:3/4] x6 | x6 | z2 z .F3 | x6 | x6 |[M:15/16] x15/2 |[M:3/4] x6 | %25
[M:5/8] x5 |] %26
V:4
 x6 | x6 | x6 | x6 | x6 | x6 | x6 | x6 | x6 | x6 | x6 | x6 | x6 | x6 | x6 | x[K:bass] x5 | %16
[M:5/8] x5 |[M:1/8][K:treble] x |[M:3/4] z2 z C z2[K:bass] | x6 | x6 | x6 | x6 | %23
[M:15/16][K:treble] x15/2 |[M:3/4] x[K:bass] x5 |[M:5/8] x5 |] %26

